assets/images/loader/item-3.svg

<svg width="114" height="119" viewBox="0 0 114 119" fill="none" xmlns="http://www.w3.org/2000/svg">
<rect x="0.601562" y="1.63831" width="113.032" height="113.032" rx="5" fill="#001AA5"/>
<path d="M50.8661 15.3984L46.5036 15.3984L46.5036 20.0272L45.1574 20.0272L45.1574 9.54569L51.5932 9.5457V10.6831L46.5036 10.6831L46.5036 14.2681L50.8661 14.2682V15.3984ZM56.4021 15.1608L55.2358 16.4854L55.2358 20.0272L53.8752 20.0272L53.8753 9.5457L55.2358 9.54569L55.2358 14.6641L56.2509 13.3971L59.3248 9.5457L60.9445 9.5457L57.2803 14.1314L61.1893 20.0273L59.5695 20.0272L56.4021 15.1608ZM64.2489 18.8971L69.3744 18.897L69.3744 20.0272L62.9171 20.0273L62.917 9.54569L64.2488 9.54569L64.2489 18.8971Z" fill="#0029FF"/>
<path d="M50.8661 102.22L46.5036 102.22L46.5036 106.849L45.1574 106.849L45.1574 96.3672L51.5932 96.3672V97.5047L46.5036 97.5046L46.5036 101.09L50.8661 101.09V102.22ZM56.4021 101.982L55.2358 103.307L55.2358 106.849L53.8752 106.849L53.8753 96.3672L55.2358 96.3672L55.2358 101.486L56.2509 100.219L59.3248 96.3672L60.9445 96.3672L57.2803 100.953L61.1893 106.849L59.5695 106.849L56.4021 101.982ZM64.2489 105.719L69.3744 105.719L69.3744 106.849L62.9171 106.849L62.917 96.3672L64.2488 96.3672L64.2489 105.719Z" fill="#0029FF"/>
<circle cx="56.96" cy="57.996" r="24.7334" stroke="white"/>
<circle cx="56.9594" cy="57.996" r="18.1508" stroke="#0029FF"/>
<circle r="6.08262" transform="matrix(-1 0 0 1 13.7377 14.7732)" stroke="white"/>
<circle r="6.08262" transform="matrix(-1 0 0 1 100.562 14.7732)" stroke="white"/>
<circle r="6.08262" transform="matrix(-1 0 0 1 13.7377 101.595)" stroke="white"/>
<circle r="6.08262" transform="matrix(-1 0 0 1 100.562 101.595)" stroke="white"/>
</svg>

<svg width="114" height="119" fill="none" xmlns="http://www.w3.org/2000/svg"><rect x=".602" y="1.638" width="113.032" height="113.032" rx="5" fill="#001AA5"/><path d="M50.866 15.398h-4.362v4.63h-1.347V9.545h6.436v1.137h-5.09v3.585h4.363v1.13zm5.536-.237l-1.166 1.324v3.542h-1.36V9.546h1.36v5.118l1.015-1.267 3.074-3.851h1.62L57.28 14.13l3.91 5.896h-1.62l-3.168-4.866zm7.847 3.736h5.125v1.13h-6.457V9.546h1.332v9.351zM50.866 102.22h-4.362v4.629h-1.347V96.367h6.436v1.138h-5.09v3.585h4.363v1.13zm5.536-.238l-1.166 1.325v3.542h-1.36V96.367h1.36v5.119l1.015-1.267 3.074-3.852h1.62l-3.665 4.586 3.91 5.896h-1.62l-3.168-4.867zm7.847 3.737h5.125v1.13h-6.457V96.367h1.332v9.352z" fill="#0029FF"/><circle cx="56.96" cy="57.996" r="24.733" stroke="#fff"/><circle cx="56.959" cy="57.996" r="18.151" stroke="#0029FF"/><circle r="6.083" transform="matrix(-1 0 0 1 13.738 14.773)" stroke="#fff"/><circle r="6.083" transform="matrix(-1 0 0 1 100.562 14.773)" stroke="#fff"/><circle r="6.083" transform="matrix(-1 0 0 1 13.738 101.595)" stroke="#fff"/><circle r="6.083" transform="matrix(-1 0 0 1 100.562 101.595)" stroke="#fff"/></svg>
